assets/svg/1F552.svg

<svg xmlns="http://www.w3.org/2000/svg" viewBox="0 0 64 64" enable-background="new 0 0 64 64"><circle fill="#e0e7ec" cx="32.04" cy="32.04" r="29.68"/><path fill="#d1d7da" d="m52.36 47.23c-16.392 0-29.68-13.288-29.68-29.678 0-5.451 1.495-10.542 4.058-14.932-13.798 2.551-24.26 14.624-24.26 29.16 0 16.394 13.288 29.682 29.68 29.682 10.943 0 20.474-5.939 25.62-14.75-1.758.326-3.565.517-5.421.517"/><path fill="#98a9b4" d="m0 32.04c0 17.666 14.372 32.04 32.04 32.04s32.04-14.372 32.04-32.04c0-17.668-14.374-32.04-32.04-32.04s-32.04 14.372-32.04 32.04m6.237 0c0-14.228 11.575-25.803 25.801-25.803 14.228 0 25.803 11.575 25.803 25.803s-11.575 25.803-25.803 25.803c-14.226 0-25.801-11.575-25.801-25.803"/><path fill="#85939c" d="m33.922 10.89c0-1.443-.849-2.609-1.893-2.609l0 0c-1.042 0-1.893 1.166-1.893 2.609v21.11c0 1.443.851 2.609 1.893 2.609l0 0c1.044 0 1.893-1.166 1.893-2.609v-21.11"/><path fill="#788288" d="m48.02 34.769c1.438 0 2.608-.851 2.608-1.895l0 0c0-1.041-1.17-1.891-2.61-1.891l-15.276-.004c-1.438 0-2.607.851-2.605 1.891l0 0c-.002 1.044 1.167 1.895 2.601 1.895l15.282.004"/></svg>

<?xml version="1.0" encoding="UTF-8" standalone="no"?>
<!-- Generator: Adobe Illustrator 16.0.0, SVG Export Plug-In . SVG Version: 6.00 Build 0)  -->

<svg
   xmlns:dc="http://purl.org/dc/elements/1.1/"
   xmlns:cc="http://creativecommons.org/ns#"
   xmlns:rdf="http://www.w3.org/1999/02/22-rdf-syntax-ns#"
   xmlns:svg="http://www.w3.org/2000/svg"
   xmlns="http://www.w3.org/2000/svg"
   xmlns:sodipodi="http://sodipodi.sourceforge.net/DTD/sodipodi-0.dtd"
   xmlns:inkscape="http://www.inkscape.org/namespaces/inkscape"
   version="1.1"
   id="Layer_1"
   x="0px"
   y="0px"
   width="64px"
   height="64px"
   viewBox="0 0 64 64"
   enable-background="new 0 0 64 64"
   xml:space="preserve"
   inkscape:version="0.48.5 r10040"
   sodipodi:docname="1F552.svg"
   inkscape:export-filename="D:\TESTINGEMOJI\SVGTEST\1F552.png"
   inkscape:export-xdpi="90"
   inkscape:export-ydpi="90"><metadata
   id="metadata3932"><rdf:RDF><cc:Work
       rdf:about=""><dc:format>image/svg+xml</dc:format><dc:type
         rdf:resource="http://purl.org/dc/dcmitype/StillImage" /><dc:title></dc:title></cc:Work></rdf:RDF></metadata><defs
   id="defs3930" /><sodipodi:namedview
   pagecolor="#ffffff"
   bordercolor="#666666"
   borderopacity="1"
   objecttolerance="10"
   gridtolerance="10"
   guidetolerance="10"
   inkscape:pageopacity="0"
   inkscape:pageshadow="2"
   inkscape:window-width="640"
   inkscape:window-height="480"
   id="namedview3928"
   showgrid="false"
   inkscape:zoom="3.6875"
   inkscape:cx="32"
   inkscape:cy="32"
   inkscape:window-x="445"
   inkscape:window-y="342"
   inkscape:window-maximized="0"
   inkscape:current-layer="Layer_1" />
<g
   id="g3916">
	<circle
   fill="#E0E7EC"
   cx="32.04"
   cy="32.038"
   r="29.68"
   id="circle3918" />
	<path
   fill="#D1D7DA"
   d="M52.364,47.229c-16.392,0-29.68-13.288-29.68-29.678c0-5.451,1.495-10.542,4.058-14.932   C12.944,5.17,2.485,17.243,2.485,31.78c0,16.394,13.288,29.682,29.68,29.682c10.943,0,20.474-5.939,25.62-14.75   C56.027,47.038,54.22,47.229,52.364,47.229z"
   id="path3920" />
	<path
   fill="#98A9B4"
   d="M0,32.04c0,17.666,14.372,32.038,32.038,32.038s32.04-14.372,32.04-32.038C64.078,14.372,49.704,0,32.038,0   S0,14.372,0,32.04z M6.237,32.04c0-14.228,11.575-25.803,25.801-25.803c14.228,0,25.803,11.575,25.803,25.803   S46.266,57.843,32.038,57.843C17.812,57.843,6.237,46.268,6.237,32.04z"
   id="path3922" />
	<path
   fill="#85939C"
   d="M33.922,10.89c0-1.443-0.849-2.609-1.893-2.609l0,0c-1.042,0-1.893,1.166-1.893,2.609v21.107   c0,1.443,0.851,2.609,1.893,2.609l0,0c1.044,0,1.893-1.166,1.893-2.609V10.89z"
   id="path3924" />
	<path
   fill="#788288"
   d="M48.019,34.769c1.438,0,2.608-0.851,2.608-1.895l0,0c0-1.041-1.17-1.891-2.61-1.891l-15.276-0.004   c-1.438,0-2.607,0.851-2.605,1.891l0,0c-0.002,1.044,1.167,1.895,2.601,1.895L48.019,34.769z"
   id="path3926" />
</g>
</svg>
